X: 19
T:Shooglenifty Hornpipe, The
M:4/4
L:1/8
R:Hornpipe
K:D
(3A,B,C[|:D2FD EAGE|F2D2 DFED|B,2E2 EFGA|B2A2 Agfe|!
fddd cdBd|AFdB AFED|E2EE AFEF|1DB,B,B, D2 (3A,B,C:|2DB,B,B, D2fg|!
|:fddd cdBd|Adcd fdcd|Bdgd Adfd|Aced ceag|!
fddd cdBd|AFdB AFED|E2EE AFEF|1DB,B,B, D2fg:|2DB,B,B, D2 (3A,B,C|]!
